X: 1
T: Hakketone Schottische
M: 4/4
L: 1/8
R: shottish
F:http://www.thesession.org/tunes/display/2676 2009-01-02 18:38:22 UT
K: Gmaj
|: "G"B2 Bc d2 g2 | "D"f2 c2       cB c2 |    A2 AB cd ef | "D/C/am"e2 "G"dc Bc d2  \
|  "G"B2 Bc d2 g2 | "D"f2 c2       cB c2 |    a2 ag fd ef |      "G"g2    b2 g2 z2 :|
|: "G"B2 d2 B2 d2 | "D"cB cd "C/am"e2 c2 | "D"A2 c2 A2 c2 | "D/C/am"e2 "G"dc d2 B2  \
|  "G"B2 d2 B2 d2 | "D"cB cd "C/am"e4    | "D"a2 ag fd ef |      "G"g2    b2 g2 z2 :|
